Sources/FrostedUI/Resources/Icons.xcassets/monitor20.imageset/monitor-20.svg

<svg width="20" height="20" viewBox="0 0 20 20" fill="none" xmlns="http://www.w3.org/2000/svg" data-fui-icon="true">
  <path
    d="M16.042 2.375C17.3765 2.3752 18.459 3.45743 18.459 4.79199V12.708C18.459 14.0426 17.3765 15.1248 16.042 15.125H13.0811V17.0107H14C14.414 17.0109 14.75 17.3467 14.75 17.7607C14.7498 18.1747 14.4139 18.5105 14 18.5107H6C5.58605 18.5106 5.25018 18.1747 5.25 17.7607C5.25 17.3466 5.58594 17.0109 6 17.0107H6.91992V15.125H3.95898C2.6243 15.125 1.54199 14.0427 1.54199 12.708V4.79199C1.54199 3.4573 2.6243 2.375 3.95898 2.375H16.042ZM8.41992 17.0107H11.5811V15.125H8.41992V17.0107ZM3.04199 12.708C3.04199 13.2143 3.45272 13.625 3.95898 13.625H16.042C16.5481 13.6248 16.959 13.2142 16.959 12.708V12.0107H3.04199V12.708ZM3.95898 3.875C3.45272 3.875 3.04199 4.28573 3.04199 4.79199V10.5107H16.959V4.79199C16.959 4.28585 16.5481 3.8752 16.042 3.875H3.95898Z"
    fill="currentColor"
  />
</svg>

<svg xmlns="http://www.w3.org/2000/svg" width="20" height="20" fill="none" data-fui-icon="true" viewBox="0 0 20 20"><path fill="currentColor" d="M16.042 2.375a2.42 2.42 0 0 1 2.417 2.417v7.916a2.42 2.42 0 0 1-2.417 2.417h-2.96v1.886H14a.75.75 0 0 1 0 1.5H6a.75.75 0 0 1 0-1.5h.92v-1.886H3.959a2.417 2.417 0 0 1-2.417-2.417V4.792a2.417 2.417 0 0 1 2.417-2.417zM8.42 17.011h3.161v-1.886H8.42zm-5.378-4.303c0 .506.41.917.917.917h12.083c.506 0 .917-.41.917-.917v-.697H3.042zm.917-8.833a.917.917 0 0 0-.917.917v5.719h13.917V4.792a.92.92 0 0 0-.917-.917z"/></svg>
